X: 12931
T: Fiddler's Casket, The
R: strathspey
M: 4/4
K: Gmajor
|:G>E|D>EG>A B>GB>e|d>G (3BAG A>GE>G|
D>EG>A B>GB<e|d<GB>A G2:|
|:G>B|d>ed>B d>GB>e|d>ed>B A>DD>B|
[1 d>ed>B d2 g>e|d>GB>A G2:|
[2 d>gB>g b>gB>g|d>BA<F G2||

